X:52
T:Lancers Sett of Quadrils No.3. TLY.052
M:2/4
L:1/16
Q:1/4=100
S:Wm.Tildesley,Swinton,Lancs.1860s.
R:.Quadrille
O:England.
A:Lancashire.
H:1860.
Z:vmp.Taz Tarry.
K:Bb
â€œas writâ€F2| B2B>B B2B2| B3F GABc|d2d>d d2d2|!
d3A Bcde|f2f>f f2b2| f2de fedc| B6||!
F2|B2B2 AGAF|B2B2 AGAF| B2Bc edcB|!
ABcd cFGA| B2B2 AGAF| B2Bc ceAc| B6||!
B2|A2f2f2f2|fedc B2B2| A2F2 F2GA|(BA)(Bc) (dc)(dB)|!
A2f2f2f2|fedc B2b2|B2b2 fedc|B4 b2|]

